!!!SOCIAL_FUNCTION:	dream songs
!!!PDT:	1913
!!!OTL: No_98_My_Shining_Horns.krn
!!!REG: Great_Lakes
!!!LANG: Non-Tone
!!!LING_GROUP: Algonquin
**kern	**kern
*staff2	*staff1
=1-	=1-
*clefF4	*clefF4
*k[f#c#]	*k[f#c#]
*M2/4	*M2/4
12GG^/	8B\L
12r	.
.	8B\J
12GG/	.
12GG^/	4B\
12r	.
12GG/	.
=2	=2
12GG^/	4B\
12r	.
12GG/	.
12GG^/	8d\L
12r	.
.	8d\J
12GG/	.
=3	=3
2r	4.B\
.	8A\
=4	=4
2r	4.F#\
.	8E\
=5	=5
2r	8D\L
.	8D\J
.	4BB/
=6	=6
2r	8F#\L
.	8F#\J
.	4E\
=7||	=7||
*M3/4	*M3/4
2.r	8D\L
.	8D\J
.	4BB/
.	8D\L
.	8D\J
=8	=8
2.r	2.BB/
==	==
*-	*-
